X: 2290
T: Back To Belfast
R: reel
M: 4/4
K: Ddorian
DAAD cDdA|AGAG EcGE|DAAD cDdA|AGAc d4|
DAAD cDdA|AGAG EcGE|DA (3AAA GEcE|1 EGGE D4:|2 EGGE D2 Ac||
dcAA AGAc|ecAA AGAc|dcAA AGAc|G2 Ec G2 Ec|
dcAA AGAc|ecAA AGAc|cddc AGcG|1 EGGE D2 Ac:|2 EGGE D4||

